svgs/solid/goal-net.svg

<svg xmlns="http://www.w3.org/2000/svg" viewBox="0 0 640 512"><!--! Font Awesome Pro 6.4.2 by @fontawesome - https://fontawesome.com License - https://fontawesome.com/license (Commercial License) Copyright 2023 Fonticons, Inc. --><path d="M64 128c0-17.7 14.3-32 32-32H544c17.7 0 32 14.3 32 32V448c0 17.7 14.3 32 32 32s32-14.3 32-32V128c0-53-43-96-96-96H96C43 32 0 75 0 128V448c0 17.7 14.3 32 32 32s32-14.3 32-32V128zm112 0c-8.8 0-16 7.2-16 16v48H112c-8.8 0-16 7.2-16 16s7.2 16 16 16h48v64H112c-8.8 0-16 7.2-16 16s7.2 16 16 16h48v64H112c-8.8 0-16 7.2-16 16s7.2 16 16 16h48v48c0 8.8 7.2 16 16 16s16-7.2 16-16V416h64v48c0 8.8 7.2 16 16 16s16-7.2 16-16V416h64v48c0 8.8 7.2 16 16 16s16-7.2 16-16V416h64v48c0 8.8 7.2 16 16 16s16-7.2 16-16V416h48c8.8 0 16-7.2 16-16s-7.2-16-16-16H480V320h48c8.8 0 16-7.2 16-16s-7.2-16-16-16H480V224h48c8.8 0 16-7.2 16-16s-7.2-16-16-16H480V144c0-8.8-7.2-16-16-16s-16 7.2-16 16v48H384V144c0-8.8-7.2-16-16-16s-16 7.2-16 16v48H288V144c0-8.8-7.2-16-16-16s-16 7.2-16 16v48H192V144c0-8.8-7.2-16-16-16zm80 256H192V320h64v64zm96 0H288V320h64v64zm96 0H384V320h64v64zm0-96H384V224h64v64zm-96 0H288V224h64v64zm-96 0H192V224h64v64z"/></svg>

<svg xmlns="http://www.w3.org/2000/svg" viewBox="0 0 640 512"><!--! Font Awesome Pro 6.1.1 by @fontawesome - https://fontawesome.com License - https://fontawesome.com/license (Commercial License) Copyright 2022 Fonticons, Inc. --><path d="M544 32H96C43.06 32 0 75.06 0 128v320c0 17.69 14.31 32 32 32s32-14.31 32-32V128c0-17.66 14.34-32 32-32h448c17.66 0 32 14.34 32 32v320c0 17.69 14.31 32 32 32s32-14.31 32-32V128C640 75.06 596.9 32 544 32zM528 224C536.8 224 544 216.8 544 208C544 199.2 536.8 192 528 192H480V144C480 135.2 472.8 128 464 128S448 135.2 448 144V192h-64V144C384 135.2 376.8 128 368 128S352 135.2 352 144V192H288V144C288 135.2 280.8 128 272 128S256 135.2 256 144V192H192V144C192 135.2 184.8 128 176 128S160 135.2 160 144V192H112C103.2 192 96 199.2 96 208C96 216.8 103.2 224 112 224H160v64H112C103.2 288 96 295.2 96 304C96 312.8 103.2 320 112 320H160v64H112C103.2 384 96 391.2 96 400C96 408.8 103.2 416 112 416H160v48C160 472.8 167.2 480 176 480S192 472.8 192 464V416h64v48C256 472.8 263.2 480 272 480S288 472.8 288 464V416h64v48c0 8.836 7.164 16 16 16s16-7.164 16-16V416h64v48c0 8.836 7.164 16 16 16s16-7.164 16-16V416h48c8.836 0 16-7.164 16-16c0-8.838-7.164-16-16-16H480v-64h48c8.836 0 16-7.164 16-16C544 295.2 536.8 288 528 288H480V224H528zM256 384H192v-64h64V384zM256 288H192V224h64V288zM352 384H288v-64h64V384zM352 288H288V224h64V288zM448 384h-64v-64h64V384zM448 288h-64V224h64V288z"/></svg>
